docs/img/icons/iPhone.svg

<svg width="24" height="38" viewBox="0 0 24 38" fill="none" xmlns="http://www.w3.org/2000/svg">
<path fill-rule="evenodd" clip-rule="evenodd" d="M6.16634 3.86947C4.78563 3.86947 3.66634 4.98875 3.66634 6.36947V31.6299C3.66634 33.0106 4.78563 34.1299 6.16634 34.1299H17.833C19.2137 34.1299 20.333 33.0106 20.333 31.6299V6.36947C20.333 4.98875 19.2137 3.86947 17.833 3.86947H17.694L17.2881 4.84355C17.0293 5.46458 16.4225 5.86909 15.7497 5.86909H8.24968C7.57688 5.86909 6.97006 5.46458 6.71126 4.84355L6.30531 3.86947H6.16634ZM0.333008 6.36947C0.333008 3.1478 2.94468 0.536133 6.16634 0.536133H17.833C21.0547 0.536133 23.6663 3.1478 23.6663 6.36947V31.6299C23.6663 34.8515 21.0547 37.4632 17.833 37.4632H6.16634C2.94468 37.4632 0.333008 34.8515 0.333008 31.6299V6.36947Z" fill="#FF5A30"/>
</svg>

<svg width="24" height="38" fill="none" xmlns="http://www.w3.org/2000/svg"><path fill-rule="evenodd" clip-rule="evenodd" d="M6.166 3.87a2.5 2.5 0 00-2.5 2.5v25.26a2.5 2.5 0 002.5 2.5h11.667a2.5 2.5 0 002.5-2.5V6.37a2.5 2.5 0 00-2.5-2.5h-.139l-.406.974a1.667 1.667 0 01-1.538 1.025h-7.5c-.673 0-1.28-.404-1.539-1.025l-.406-.975h-.139zM.333 6.37A5.833 5.833 0 016.166.535h11.667a5.833 5.833 0 015.833 5.833v25.26a5.833 5.833 0 01-5.833 5.834H6.166A5.833 5.833 0 01.333 31.63V6.37z" fill="#FF5A30"/></svg>
